svg/SJJB-OpenStreetMapIcons/transport/lighthouse.svg

<?xml version="1.0" encoding="UTF-8" standalone="no"?>
<!-- Created with Inkscape (http://www.inkscape.org/) -->
<svg
   xmlns:dc="http://purl.org/dc/elements/1.1/"
   xmlns:cc="http://creativecommons.org/ns#"
   xmlns:rdf="http://www.w3.org/1999/02/22-rdf-syntax-ns#"
   xmlns:svg="http://www.w3.org/2000/svg"
   xmlns="http://www.w3.org/2000/svg"
   xmlns:sodipodi="http://sodipodi.sourceforge.net/DTD/sodipodi-0.dtd"
   xmlns:inkscape="http://www.inkscape.org/namespaces/inkscape"
   version="1.0"
   width="580"
   height="580"
   id="svg2"
   sodipodi:version="0.32"
   inkscape:version="0.46"
   sodipodi:docname="lighthouse.svg"
   sodipodi:docbase="s:\Data\FacilityIcons"
   inkscape:output_extension="org.inkscape.output.svg.inkscape">
  <metadata
     id="metadata2975">
    <rdf:RDF>
      <cc:Work
         rdf:about="">
        <dc:format>image/svg+xml</dc:format>
        <dc:type
           rdf:resource="http://purl.org/dc/dcmitype/StillImage" />
			  <cc:license
           rdf:resource="http://web.resource.org/cc/PublicDomain" />
        <dc:language>en</dc:language>
      </cc:Work>
    </rdf:RDF>
  </metadata>
  <sodipodi:namedview
     inkscape:window-height="1005"
     inkscape:window-width="1280"
     inkscape:pageshadow="2"
     inkscape:pageopacity="0.0"
     guidetolerance="10.0"
     gridtolerance="10.0"
     objecttolerance="10.0"
     borderopacity="1.0"
     bordercolor="#666666"
     pagecolor="#ffffff"
     id="base"
     inkscape:zoom="0.92167712"
     inkscape:cx="143.65421"
     inkscape:cy="205.33553"
     inkscape:window-x="-4"
     inkscape:window-y="-4"
     inkscape:current-layer="svg2"
     showgrid="false" />
  <defs
     id="defs4">
    <inkscape:perspective
       sodipodi:type="inkscape:persp3d"
       inkscape:vp_x="0 : 290 : 1"
       inkscape:vp_y="0 : 1000 : 0"
       inkscape:vp_z="580 : 290 : 1"
       inkscape:persp3d-origin="290 : 193.33333 : 1"
       id="perspective2441" />
    <inkscape:perspective
       id="perspective3452"
       inkscape:persp3d-origin="30 : 20 : 1"
       inkscape:vp_z="60 : 30 : 1"
       inkscape:vp_y="0 : 1000 : 0"
       inkscape:vp_x="0 : 30 : 1"
       sodipodi:type="inkscape:persp3d" />
    <symbol
       viewBox="244.5 110 489 219.9"
       id="symbol-university">
      <path
         id="path4460"
         d="M79,43l57,119c0,0,21-96,104-96s124,106,124,106l43-133l82-17L0,17L79,43z" />
      <path
         id="path4462"
         d="M94,176l-21,39"
         stroke-width="20"
         stroke="#000000"
         fill="none" />
      <path
         id="path4464"
         d="M300,19c0,10.5-22.6,19-50.5,19S199,29.5,199,19s22.6-19,50.5-19S300,8.5,300,19z" />
      <path
         id="path4466"
         d="M112,216l-16-38L64,88c0,0-9-8-4-35s16-24,16-24"
         stroke-width="20"
         stroke="#000000"
         ill="none" />
    </symbol>
    <inkscape:perspective
       id="perspective4471"
       inkscape:persp3d-origin="372.04724 : 350.78739 : 1"
       inkscape:vp_z="744.09448 : 526.18109 : 1"
       inkscape:vp_y="0 : 1000 : 0"
       inkscape:vp_x="0 : 526.18109 : 1"
       sodipodi:type="inkscape:persp3d" />
    <inkscape:perspective
       id="perspective4668"
       inkscape:persp3d-origin="6 : 4 : 1"
       inkscape:vp_z="12 : 6 : 1"
       inkscape:vp_y="0 : 1000 : 0"
       inkscape:vp_x="0 : 6 : 1"
       sodipodi:type="inkscape:persp3d" />
  </defs>
  <g
     id="g1327">
    <path
       d="M 66.275,1.768 C 24.94,1.768 1.704,23.139 1.704,66.804 L 1.704,516.927 C 1.704,557.771 22.599,579.156 63.896,579.156 L 515.92,579.156 C 557.227,579.156 578.149,558.841 578.149,516.927 L 578.149,66.804 C 578.149,24.203 557.227,1.768 514.628,1.768 C 514.624,1.768 66.133,1.625 66.275,1.768 z "
       style="fill:#111;stroke:#eee;stroke-width:3.40799999"
       id="path1329" />
  </g>
  <g
     id="layer3"
     inkscape:label="Layout"
     style="display:none;stroke:#757575;stroke-opacity:1"
     transform="matrix(48.14969,0,0,48.14969,-536.27327,-33.306752)">
    <rect
       style="fill:none;stroke:#757575;stroke-width:0.10000000000000001;stroke-miterlimit:4;stroke-dasharray:none;stroke-opacity:1;display:inline"
       id="rect4134"
       width="10"
       height="10"
       x="1"
       y="1" />
    <rect
       style="fill:none;stroke:#757575;stroke-width:0.10000000000000001;stroke-miterlimit:4;stroke-dasharray:none;stroke-opacity:1;display:inline"
       id="rect4136"
       width="8"
       height="8"
       x="2"
       y="2" />
  </g>
  <path
     style="font-size:40px;font-style:normal;font-variant:normal;font-weight:normal;font-stretch:normal;text-align:start;line-height:125%;writing-mode:lr-tb;text-anchor:start;fill:#ffffff;fill-opacity:1;stroke:#ffffff;stroke-width:10;stroke-linecap:butt;stroke-linejoin:round;stroke-miterlimit:4;stroke-dasharray:none;stroke-opacity:1;font-family:NPSPICT3;-inkscape-font-specification:NPSPICT3"
     d="M 361.71459,80.721032 C 364.06866,80.721399 365.24586,79.741384 365.24623,77.781001 C 365.24586,76.598174 364.66025,75.618173 363.48938,74.840955 L 291.22544,34.899496 L 219.57102,74.840955 C 218.38762,75.618173 217.79603,76.598174 217.79625,77.781001 C 217.79603,79.741384 218.77604,80.721399 220.73628,80.721032 L 361.71459,80.721032 z M 365.24623,180.60396 C 369.54834,180.60424 371.6996,178.453 371.69997,174.15023 C 371.6996,169.83608 369.54834,167.67885 365.24623,167.67856 L 217.79625,167.67856 C 213.49353,167.67885 211.34229,169.83608 211.34251,174.15023 C 211.34229,178.453 213.49353,180.60424 217.79625,180.60396 L 230.13006,180.60396 L 181.96007,543.67391 L 400.4908,543.67391 L 352.91242,180.60396 L 365.24623,180.60396 z"
     id="flowRoot3192"
     sodipodi:nodetypes="cscccscccsccscccccc" />
  <path
     sodipodi:nodetypes="cccccccccc"
     id="path3186"
     d="M 239.17868,105.75173 L 35.92179,79.900921 L 36.51338,165.66393 L 239.17868,140.40471 L 239.17868,105.75173 z M 345.88172,139.81312 L 548.54702,165.66393 L 548.54702,79.900921 L 345.88172,105.75173 L 345.88172,139.81312 z"
     style="font-size:40px;font-style:normal;font-variant:normal;font-weight:normal;font-stretch:normal;text-align:start;line-height:125%;writing-mode:lr-tb;text-anchor:start;opacity:0.5;fill:#ffffff;fill-opacity:1;stroke:#ffffff;stroke-width:10;stroke-linecap:butt;stroke-linejoin:round;stroke-miterlimit:4;stroke-dasharray:none;stroke-opacity:1;font-family:NPSPICT3;-inkscape-font-specification:NPSPICT3" />
  <path
     sodipodi:type="arc"
     style="opacity:1;fill:#ffffff;fill-opacity:1;stroke:#ffffff;stroke-width:10;stroke-linecap:round;stroke-linejoin:round;stroke-miterlimit:4;stroke-dasharray:none;stroke-dashoffset:0;stroke-opacity:1"
     id="path3188"
     sodipodi:cx="286.43436"
     sodipodi:cy="125.39394"
     sodipodi:rx="36.889275"
     sodipodi:ry="36.889275"
     d="M 323.32363,125.39394 A 36.889275,36.889275 0 1 1 249.54508,125.39394 A 36.889275,36.889275 0 1 1 323.32363,125.39394 z"
     transform="matrix(0.8704944,0,0,0.8704944,43.094837,14.239211)" />
</svg>

<svg xmlns="http://www.w3.org/2000/svg" viewBox="0 0 580 580"><path d="m66.28 1.768c-41.34 0-64.57 21.371-64.57 65.04v450.12c0 40.844 20.895 62.23 62.19 62.23h452.02c41.31 0 62.23-20.315 62.23-62.23v-450.12c0-42.601-20.922-65.04-63.52-65.04-.004 0-448.5-.143-448.35 0z" fill="#111" stroke="#eee" stroke-width="3.408"/><g fill="#fff" stroke="#fff" stroke-linejoin="round" stroke-width="10"><path d="m361.71 80.72c2.354 0 3.531-.98 3.532-2.94 0-1.183-.586-2.163-1.757-2.94l-72.26-39.941-71.65 39.941c-1.183.777-1.775 1.757-1.775 2.94 0 1.96.98 2.94 2.94 2.94h140.98zm3.532 99.88c4.302 0 6.453-2.151 6.454-6.454 0-4.314-2.152-6.471-6.454-6.472h-147.45c-4.303 0-6.454 2.158-6.454 6.472 0 4.303 2.151 6.454 6.454 6.454h12.334l-48.17 363.07h218.53l-47.578-363.07h12.334z"/><path d="m239.18 105.75l-203.26-25.851.592 85.76 202.67-25.26v-34.653zm106.7 34.06l202.67 25.851v-85.76l-202.67 25.851v34.06z" opacity=".5"/><path d="M323.32363 125.39394A36.889275 36.889275 0 1 1 249.54508 125.39394 36.889275 36.889275 0 1 1 323.32363 125.39394z" transform="matrix(.87049 0 0 .87049 43.09 14.239)" stroke-linecap="round"/></g></svg>
